!!!SOCIAL_FUNCTION:	songs with hunting dance
!!!PDT:	1956
!!!OTL: No_45_Cow_Creek_Hunting_Dance_Song_(l).krn
!!!LANG: Non-Tone
!!!LING_GROUP: Muskogean
!!!REG: Florida
**kern
*staff1
=1-
*clefF4
*k[b-]
*M3/4
4c\
8c\L
8A\J
8A\L
8G\J
=2
8F\L
8F\J
4F\
4r
=3
4c\
8c\L
8A\J
8A\L
8G\J
=4||
*M2/4
8F\L
8F\J
4F\
=5||
*M3/4
4A\
8c\L
8A\J
8A\L
8G\J
=6
8F\L
8F\J
4F\
4r
=7||
*M2/4
8A\L
8G\J
4A\
=8
2G\
=9
8.F\L
16D\Jk
4D\
=10
4D\
4r
=11
8.F\L
16F\Jk
(8.G\L
16F\Jk)
=12
2F\
=13||
*M3/4
8.F/L
16C/Jk
4C/
4C/
=14
4A\
8c\L
8A\J
8A\L
8G\J
=15||
*M2/4
8F\L
8F\J
4F\
=16||
*M3/4
4c\
8c\L
8A\J
8A\L
8G\J
=17
8F\L
8F\J
4r
4F\
=18||
*M2/4
8A\L
8G\J
(8.A\L
16G\Jk)
=19
2G\
=20
8.F\L
16D\Jk
4D\
=21
4D\
4r
=22
8.F\L
16F\Jk
(8.G\L
16F\Jk)
=23
2F\
=24||
*M3/4
8.F/L
16C/Jk
4C/
4C/
=25
4A\
8c\L
8A\J
8A\L
8G\J
=26||
*M2/4
8F\L
8F\J
4F\
=27||
*M3/4
4c\
8c\L
8A\J
8A\L
8G\J
=28||
*M2/4
8F\L
8F\J
8F\
8r
=29
8A\L
8G\J
(8.A\L
16G\Jk)
=30
2G\
=31
8.F\L
16D\Jk
4D\
=32
4D\
4r
=33
8.F\L
16F\Jk
(8.G\L
16F\Jk)
=34
2F\
=35||
*M3/4
8.F/L
16C/Jk
4C/
4C/
==
*-
